assets/images/shape.svg

<svg width="567" height="468" fill="none" xmlns="http://www.w3.org/2000/svg"><path d="M0 378h472v65c0 13.807-11.193 25-25 25H25c-13.807 0-25-11.193-25-25v-65ZM0 20C0 8.954 8.954 0 20 0h527c11.046 0 20 8.954 20 20v338c0 11.046-8.954 20-20 20H0V20ZM472 413v-35h40.166c-17 0-29 11-29 11S472 401 472 413Z" fill="#292828" fill-opacity=".6"/></svg>

<svg width="567" height="468" viewBox="0 0 567 468" fill="none" xmlns="http://www.w3.org/2000/svg">
<path d="M0 378H472V443C472 456.807 460.807 468 447 468H25C11.1929 468 0 456.807 0 443V378Z" fill="#292828" fill-opacity="0.6"/>
<path d="M0 20C0 8.9543 8.95431 0 20 0H547C558.046 0 567 8.9543 567 20V358C567 369.046 558.046 378 547 378H0V20Z" fill="#292828" fill-opacity="0.6"/>
<path d="M472 413C472 400 472 389 472 378C481.591 378 490.666 378 490.666 378C490.666 378 529.166 378 512.166 378C495.166 378 483.166 389 483.166 389C483.166 389 472 401 472 413Z" fill="#292828" fill-opacity="0.6"/>
</svg>
